svgs/thin/archway.svg

<svg xmlns="http://www.w3.org/2000/svg" viewBox="0 0 512 512"><!--! Font Awesome Pro 6.6.0 by @fontawesome - https://fontawesome.com License - https://fontawesome.com/license (Commercial License) Copyright 2024 Fonticons, Inc. --><path d="M0 40c0-4.4 3.6-8 8-8l32 0 432 0 32 0c4.4 0 8 3.6 8 8s-3.6 8-8 8l-24 0 0 416 24 0c4.4 0 8 3.6 8 8s-3.6 8-8 8l-32 0-40 0-72 0c-4.4 0-8-3.6-8-8l0-120c0-53-43-96-96-96s-96 43-96 96l0 120c0 4.4-3.6 8-8 8l-72 0-40 0L8 480c-4.4 0-8-3.6-8-8s3.6-8 8-8l24 0L32 48 8 48c-4.4 0-8-3.6-8-8zm48 8l0 416 32 0 64 0 0-112c0-61.9 50.1-112 112-112s112 50.1 112 112l0 112 64 0 32 0 0-416L48 48zm56 96l304 0c4.4 0 8 3.6 8 8s-3.6 8-8 8l-304 0c-4.4 0-8-3.6-8-8s3.6-8 8-8z"/></svg>

<svg xmlns="http://www.w3.org/2000/svg" viewBox="0 0 512 512"><!--! Font Awesome Pro 6.4.2 by @fontawesome - https://fontawesome.com License - https://fontawesome.com/license (Commercial License) Copyright 2023 Fonticons, Inc. --><path d="M0 40c0-4.4 3.6-8 8-8H40 472h32c4.4 0 8 3.6 8 8s-3.6 8-8 8H480V464h24c4.4 0 8 3.6 8 8s-3.6 8-8 8H472 432 360c-4.4 0-8-3.6-8-8V352c0-53-43-96-96-96s-96 43-96 96V472c0 4.4-3.6 8-8 8H80 40 8c-4.4 0-8-3.6-8-8s3.6-8 8-8H32V48H8c-4.4 0-8-3.6-8-8zm48 8V464H80h64V352c0-61.9 50.1-112 112-112s112 50.1 112 112V464h64 32V48H48zm56 96H408c4.4 0 8 3.6 8 8s-3.6 8-8 8H104c-4.4 0-8-3.6-8-8s3.6-8 8-8z"/></svg>
